X:420
T:Betty's apron
R:Strathspey
O:Scotland
S:Kerr's Fourth
B:Kerr's Fourth
Z:Transcription, chords:Mike Long
M:4/4
L:1/8
K:C
"Am"A,3 B, C<C C>D|E>Ac>B A3 E|\
"Am"A,3 B, "C"C<C C>E|"F"F>DE>C "E"B,3E|
"Am"A,3 B, C<C C>D|E>Ac>B A3 c|\
"Dm"d>ef>d "Am"e>cA>c|"G"(3(dcB) "F"(3(cBA) "E"^G<B B>e|]
"Am"e<a a>g e<a a>g|"Am"(3(edc) "G"(3(dcB) "Am"A3e|\
"G"d<g g>e d<g g>e|"G"(3(dcB) "F"(3(cBA) "G"G3f|
"Am"e<a a>g e<a a>g|"Am"(3(edc) "G"(3(dcB) "Am"A3c|\
"Dm"d>ef>d "Am"c>de>a|"E"e>dc>B "Am"A3 z|]
